!! 00046] TT[KA
!! NN
!!!OTL: Bai ling niao
!!!ARE: Xinjiang, Kuche (SÅd)
!! Ethnic Group: Weiwuer
!! IV, 442
!!!SCT: C0428B
!!!YEM: Copyright 1995, estate of Helmut Schaffrath.
**kern
*ICvox
*Ivox
*M2/4
*k[]
*C:
{8r
16.dd
32dd
16dd
16gg
16ff
16aa
=1
16gg
16ff
16ee
16dd
16dd
16cc#
16ee
[16dd
=2
16dd]}
{32a
32a
16a
16b
16dd
16cc
16ee
[16dd
=3
16dd]
32cc
32cc
32b
32a
16cc
8gg}
{16ff
[16dd
=4
16dd]
16cc
16b
16a
16cc
[8.g
=5
2g]}
=6
{16r
16g
16f#
16g
16a
16cc
32b
32cc
[16a
=7
16a]
32ff
32ff
16ee
16dd
16.dd
32b
16cc
[16a
=8
16a]}
{16d
16e
16f
16.g
32cc
32b
32cc
[16a
=9
16a]
16f
16.e
32c
4d}
=10
{16d
16g
16f#
16g
16a
16cc
32b
32cc
[16a
=11
16a]
16ff
16ee
16dd
16.dd
32b
16cc
[16a
=12
16a]}
{16d
16e
16f
16.g
32cc
32b
32cc
16a
=13
16g
16f
16e
16c
4d}
=14
{16d
16g
16f#
16g
16a
16cc
32b
32cc
[16a
=15
16a]
16ff
16.ee
32dd
16.dd
32b
16cc
[16a
=16
16a]}
{16d
16e
16f
16g
16cc
32b
32cc
16a
=17
16g
16f
16.e
32c
4d}
==
!!!AGN: Aiqing gequ
!! Der Titel bezieht sich auf einen wichtigen Ort an der
!!    Seidenstrasse.
!!    +++Das Lied wurde GETEILT!!! Der erste Teil ist im vorherigen Dokument
!!    unter gleicher Signatur A kodiert.
!!    Vereinzelt Verzierungen, Glissando. Vor- und Zwischenspiele weggelas-
!!    sen. Die 7 wird z.T. tiefer gesungen.
!!!ONB: ESAC (Essen Associative Code) Database: CHINA
!!!AMT: simple duple
!!!AIN: vox
!!!EED: Helmut Schaffrath
!!!EEV: 1.0
*-
!!!ONB: Tied note syntax fixed by Craig Sapp, 2004/05/03/
